!!!COM: des Prez, Josquin
!!!CDT: ~1450-1521/08/27
!!!OTL@@FRE: Qui belles amours
!!!AGN: Chanson
!!!SCT: NJE 28.29
!!!SCA: New Josquin Edition 28.29
!!!voices: 4
**kern	**text	**kern	**text	**kern	**text	**kern	**text
*staff4	*	*staff3	*	*staff2	*	*staff1	*
*Ivox	*	*Ivox	*	*Ivox	*	*Ivox	*
*I"Bassus	*	*I"Tenor	*	*I"Altus	*	*I"Superius	*
*I'B	*	*I'T	*	*I'A	*	*I'S	*
*clefF4	*	*clefGv2	*	*clefGv2	*	*clefG2	*
*k[b-]	*	*k[b-]	*	*k[b-]	*	*k[b-]	*
*M2/1	*	*M2/1	*	*M2/1	*	*M2/1	*
*met(C|)	*	*met(C|)	*	*met(C|)	*	*met(C|)	*
=1-	=1-	=1-	=1-	=1-	=1-	=1-	=1-
!	!	!	!	!	!	!LO:TX:Z=6:t=The sources give only incipits (or the alternate text "Ach unfal"); text underlay conjectural	!
1G	Qui	0r	.	0r	.	0r	.
[1B-	bel-	.	.	.	.	.	.
=2	=2	=2	=2	=2	=2	=2	=2
2B-\]	.	0r	.	0r	.	0r	.
2B-\	-les	.	.	.	.	.	.
2B-\	a-	.	.	.	.	.	.
2B-\	-mours	.	.	.	.	.	.
=3	=3	=3	=3	=3	=3	=3	=3
2A\	a,	0r	.	1r	.	0r	.
1B-	.	.	.	.	.	.	.
.	.	.	.	1d	Qui	.	.
4A\	.	.	.	.	.	.	.
4G\	.	.	.	.	.	.	.
=4	=4	=4	=4	=4	=4	=4	=4
1.F	.	0r	.	2.f\	bel-	0r	.
.	.	.	.	4f\	-les	.	.
.	.	.	.	2f\	a-	.	.
4E\	.	.	.	2f\	-mours	.	.
4D\	.	.	.	.	.	.	.
=5	=5	=5	=5	=5	=5	=5	=5
2C/	.	0r	.	2e\	a,	0r	.
2BB-/	.	.	.	1f	.	.	.
[1F	.	.	.	.	.	.	.
.	.	.	.	4e\	.	.	.
.	.	.	.	4d\	.	.	.
=6	=6	=6	=6	=6	=6	=6	=6
2F\]	.	0r	.	0c	.	1r	.
4E\	.	.	.	.	.	.	.
4D\	.	.	.	.	.	.	.
1C	.	.	.	.	.	1g	Qui
=7	=7	=7	=7	=7	=7	=7	=7
2BB-/	qui	0r	.	1r	.	2.b-\	bel-
1B-	bel-	.	.	.	.	.	.
.	.	.	.	.	.	4b-\	-les
.	.	.	.	1d	qui	2b-\	a-
4A\	-les	.	.	.	.	2b-\	-mours
4G\	.	.	.	.	.	.	.
=8	=8	=8	=8	=8	=8	=8	=8
2F\	a-	1r	.	4f\	bel-	2a/	a
.	.	.	.	4e\	.	.	.
1G	-mours	.	.	4d\	.	1b-	.
.	.	.	.	4c\	.	.	.
.	.	1G	Qui	2B-\	-les	.	.
4F\	.	.	.	2c\	a-	4a/	.
4E\	.	.	.	.	.	4g/	.
=9	=9	=9	=9	=9	=9	=9	=9
2D\	.	2.B-\	bel-	1d	-mours,	1f	.
1BB-	a	.	.	.	.	.	.
.	.	4B-\	-les	.	.	.	.
.	.	2B-\	a-	2r	.	2r	.
4AA/	.	2B-\	-mours	2d\	Sou-	2g/	Sou-
4GG/	.	.	.	.	.	.	.
=10	=10	=10	=10	=10	=10	=10	=10
1D	.	2A/	a	1f	-vent,	2a/	-vent,
.	.	1B-	.	.	.	2f/	sou-
2r	.	.	.	2r	.	1b-	-vent,
2GG/	Sou-	4A/	.	2d\	sou-	.	.
.	.	4G/	.	.	.	.	.
=11	=11	=11	=11	=11	=11	=11	=11
1D	-vent,	1F	.	1f	-vent,	2r	.
.	.	.	.	.	.	2a/	sou-
1r	.	2r	.	2r	.	1b-	-vent,
.	.	2G/	Sou-	2d\	sou-	.	.
=12	=12	=12	=12	=12	=12	=12	=12
1D	sou-	2A/	-vent,	2.f\	-vent,	1r	.
.	.	2F/	sou-	.	.	.	.
.	.	.	.	4e\	.	.	.
1G	-vent,	1B-	-vent,	4d\	.	2r	.
.	.	.	.	4c\	.	.	.
.	.	.	.	2d\	sou-	2g/	sou-
=13	=13	=13	=13	=13	=13	=13	=13
1r	.	2r	.	4B-\	-vent,	1b-	-vent,
.	.	.	.	4c\	.	.	.
.	.	2G/	sou-	4d\	.	.	.
.	.	.	.	4e\	.	.	.
1D	sou-	2A/	-vent,	1f	.	1r	.
.	.	2F/	sou-	.	.	.	.
=14	=14	=14	=14	=14	=14	=14	=14
1G	-vent,	1B-	-vent,	2r	.	2r	.
.	.	.	.	2d\	sou-	2g/	sou-
2D\	sou-	2r	.	2f\	-vent	2a/	-vent
2G\	-vent,	2G/	sou-	2d\	sy	2b-\	sy
=15	=15	=15	=15	=15	=15	=15	=15
2F\	sou-	2A/	-vent	2f\	les	2a/	les
2G\	-vent,	2B-\	sy	2d\	re-	2g/	re-
2F\	sou-	2A/	les	2f\	-mu-	[1cc	-mu-
2G\	-vent,	2G/	re-	2e\	.	.	.
=16	=16	=16	=16	=16	=16	=16	=16
2r	.	1A	-mu-	4f\	.	2cc\]	.
.	.	.	.	4e\	.	.	.
2F\	sou-	.	.	4d\	.	4b-\	.
.	.	.	.	4c\	.	4a/	.
2G\	-vent	1G	-e,	1B-	-e,	2b-\	-e,
2E\	sy	.	.	.	.	2g/	sou-
=17	=17	=17	=17	=17	=17	=17	=17
2F\	les	2r	.	2r	.	2a/	-vent
2G\	re-	2G/	sou-	2d\	sou-	2b-\	sy
2F\	-mu-	2A/	-vent	2f\	-vent	2a/	les
2G\	.	2B-\	sy	2e\	sy	2g/	re-
=18	=18	=18	=18	=18	=18	=18	=18
2D\	.	2A/	les	2d\	les	2f/	-mu-
2E-\	.	2G/	re-	2c\	re-	1g	.
1D	-e,	1A	-mu-	[1d	-mu-	.	.
.	.	.	.	.	.	2f#i/	.
=19	=19	=19	=19	=19	=19	=19	=19
2r	.	[0G	-e.	2d\]	.	0g	-e.
2GG/	re-	.	.	4c\	.	.	.
.	.	.	.	4B-\	.	.	.
2C/	-mu-	.	.	2e-\	.	.	.
[2BB-/	.	.	.	[2d\	.	.	.
=20	=20	=20	=20	=20	=20	=20	=20
2BB-/]	.	0G]	.	2d\]	.	1r	.
4AA/	.	.	.	4c\	.	.	.
4GG/	.	.	.	4B-\	.	.	.
2C/	-e,	.	.	2e-i\	.	1g	L'au-
2BB-/	Lau-	.	.	[2d\	.	.	.
=21	=21	=21	=21	=21	=21	=21	=21
1GG	-trier	0r	.	4d\]	.	2.b-\	-trier
.	.	.	.	4c\	.	.	.
.	.	.	.	4B-\	.	.	.
.	.	.	.	4A/	.	4b-\	quant
1G	.	.	.	2G/	-e.	2b-\	che-
.	.	.	.	2B-\	Lau-	2b-\	-vau-
=22	=22	=22	=22	=22	=22	=22	=22
2F\	quant	1r	.	2c\	-trier	2a/	-choy-
2D\	che-	.	.	1d	.	2f/	.
2.E-\	-veau-	1G	L'au-	.	.	2.g/	.
.	.	.	.	2c\	quant	.	.
4D\	.	.	.	.	.	4f/	.
=23	=23	=23	=23	=23	=23	=23	=23
1.BB-	-choy-	2.B-\	-trier	2.f\	che-	1d	-e
.	.	4B-\	quant	4e\	-vau-	.	.
.	.	2B-\	che-	4d\	-choy-	2r	.
.	.	.	.	4c\	.	.	.
4AA/	.	2B-\	-vau-	[2d\	.	2d/	A
4GG/	.	.	.	.	.	.	.
=24	=24	=24	=24	=24	=24	=24	=24
1D	-e	4A/	-choy-	1d]	.	2.f/	Pa-
.	.	4G/	.	.	.	.	.
.	.	4F/	.	.	.	.	.
.	.	4E/	.	.	.	4g/	.
1r	.	1F	-e	2.c\	.	4a/	.
.	.	.	.	.	.	4b-\	.
.	.	.	.	.	.	2cc\	-ris
.	.	.	.	4B-\	.	.	.
=25	=25	=25	=25	=25	=25	=25	=25
0r	.	0r	.	2G/	-e	2b-\	la
.	.	.	.	1g	A	2g/	grant
.	.	.	.	.	.	1a	ru-
.	.	.	.	2f\	Pa-	.	.
=26	=26	=26	=26	=26	=26	=26	=26
0r	.	2r	.	4g\	-ris	1g	-e
.	.	.	.	4f\	.	.	.
.	.	2G/	A	4e\	.	.	.
.	.	.	.	4d\	.	.	.
.	.	2A/	Pa-	4c\	.	1r	.
.	.	.	.	4B-\	.	.	.
.	.	2c\	-ris	[2A/	le	.	.
=27	=27	=27	=27	=27	=27	=27	=27
1r	.	2B-\	la	4A/]	.	0r	.
.	.	.	.	4G/	.	.	.
.	.	2G/	grant	1g	grant	.	.
1D	A	1A	ru-	.	.	.	.
.	.	.	.	2f#i\	ru-	.	.
=28	=28	=28	=28	=28	=28	=28	=28
2.G\	Pa-	0G	-e	1g	-e	1r	.
4F\	.	.	.	.	.	.	.
4G\	-ris	.	.	1G	Sur	1d	Sur
4A\	.	.	.	.	.	.	.
[2B-\	la	.	.	.	.	.	.
=29	=29	=29	=29	=29	=29	=29	=29
4B-\]	.	0r	.	1B-	mon	2.g/	mon
4A\	.	.	.	.	.	.	.
4G\	grant	.	.	.	.	.	.
4F\	.	.	.	.	.	4g/	che-
1E	ru-	.	.	1c	che-	2g/	-val
.	.	.	.	.	.	2g/	mo-
=30	=30	=30	=30	=30	=30	=30	=30
1.D	-e.	1r	.	2d\	-val	2.f/	-reau
.	.	.	.	1f	mo-	.	.
.	.	.	.	.	.	4e/	.
.	.	1D	Sur	.	.	1d	.
4C/	Sur	.	.	4e-i\	.	.	.
4BB-/	.	.	.	4d\	.	.	.
=31	=31	=31	=31	=31	=31	=31	=31
2C/	mon	2.G/	mon	2e-\	-reau	0r	.
2BB-/	che-	.	.	1d	.	.	.
.	.	4G/	che-	.	.	.	.
4GG/	-val	2G/	-val	.	.	.	.
4AA/	.	.	.	.	.	.	.
4BB-/	.	2G/	mo-	4c\	.	.	.
4C/	.	.	.	4B-\	.	.	.
=32	=32	=32	=32	=32	=32	=32	=32
4D\	.	2.F/	-reau	2.A/	.	1r	.
4C/	.	.	.	.	.	.	.
4D\	.	.	.	.	.	.	.
4E\	.	4E/	.	4G/	.	.	.
4F\	mo-	1D	.	1A	Qui	1a	Qui
4G\	.	.	.	.	.	.	.
4A\	.	.	.	.	.	.	.
4F\	.	.	.	.	.	.	.
=33	=33	=33	=33	=33	=33	=33	=33
1G	-reau	0r	.	4G/	sou-	1.b-	sou-
.	.	.	.	4A/	.	.	.
.	.	.	.	4B-\	.	.	.
.	.	.	.	4c\	.	.	.
1r	.	.	.	4d\	.	.	.
.	.	.	.	4e\	.	.	.
.	.	.	.	2f\	-vent	2a/	-vent
=34	=34	=34	=34	=34	=34	=34	=34
0r	.	1r	.	2e\	sault	2g/	saut
.	.	.	.	1d	et	2f/	et
.	.	1A	Qui	.	.	1e	ru-
.	.	.	.	2c#i\	ru-	.	.
=35	=35	=35	=35	=35	=35	=35	=35
0r	.	1.B-	sou-	2d\	e,	0d	-e.
.	.	.	.	4B-\	sou-	.	.
.	.	.	.	4c\	.	.	.
.	.	.	.	4d\	-vent	.	.
.	.	.	.	4e\	.	.	.
.	.	2A/	-vent	2f\	sault	.	.
=36	=36	=36	=36	=36	=36	=36	=36
1r	.	2G/	sault	2e\	et	0r	.
.	.	2F/	en	1d	ru-	.	.
1G	Qui	1E	ru-	.	.	.	.
.	.	.	.	2c#i\	.	.	.
=37	=37	=37	=37	=37	=37	=37	=37
2.B-\	bel-	[0D	-e.	0d	-e.	0r	.
4B-\	-les	.	.	.	.	.	.
2B-\	a-	.	.	.	.	.	.
2B-\	-mours	.	.	.	.	.	.
=38	=38	=38	=38	=38	=38	=38	=38
2A\	a,	0D]	.	1r	.	0r	.
1B-	.	.	.	.	.	.	.
.	.	.	.	1d	Qui	.	.
4A\	.	.	.	.	.	.	.
4G\	.	.	.	.	.	.	.
=39	=39	=39	=39	=39	=39	=39	=39
1.F	.	0r	.	2.f\	bel-	0r	.
.	.	.	.	4f\	-les	.	.
.	.	.	.	2f\	a-	.	.
4E\	.	.	.	2f\	-mours,	.	.
4D\	.	.	.	.	.	.	.
=40	=40	=40	=40	=40	=40	=40	=40
2C/	.	0r	.	2e\	a,	0r	.
2BB-/	qui	.	.	1f	.	.	.
[1F	bel-	.	.	.	.	.	.
.	.	.	.	4e\	.	.	.
.	.	.	.	4d\	.	.	.
=41	=41	=41	=41	=41	=41	=41	=41
2F\]	.	0r	.	0c	.	1r	.
4E\	.	.	.	.	.	.	.
4D\	.	.	.	.	.	.	.
1C	les	.	.	.	.	1g	Qui
=42	=42	=42	=42	=42	=42	=42	=42
2BB-/	a-	0r	.	1r	.	2.b-\	bel-
1B-	.	.	.	.	.	.	.
.	.	.	.	.	.	4b-\	-les
.	.	.	.	1d	qui	2b-\	a-
4A\	.	.	.	.	.	2b-\	-mours
4G\	.	.	.	.	.	.	.
=43	=43	=43	=43	=43	=43	=43	=43
2F\	.	1r	.	4f\	bel-	2a/	a
.	.	.	.	4e\	.	.	.
1G	-mours	.	.	4d\	.	1b-	.
.	.	.	.	4c\	.	.	.
.	.	1G	Qui	2B-\	-les	.	.
4F\	.	.	.	2c\	a-	4a/	.
4E\	.	.	.	.	.	4g/	.
=44	=44	=44	=44	=44	=44	=44	=44
2D\	.	2.B-\	bel-	1d	-mours,	1f	.
1BB-	a	.	.	.	.	.	.
.	.	4B-\	-les	.	.	.	.
.	.	2B-\	a-	2r	.	2r	.
4AA/	.	2B-\	-mours	2d\	Sou-	2g/	Sou-
4GG/	.	.	.	.	.	.	.
=45	=45	=45	=45	=45	=45	=45	=45
1D	.	2A/	a	1f	-vent,	2a/	-vent,
.	.	1B-	.	.	.	2f/	sou-
2r	.	.	.	2r	.	1b-	-vent,
2GG/	Sou-	4A/	.	2d\	sou-	.	.
.	.	4G/	.	.	.	.	.
=46	=46	=46	=46	=46	=46	=46	=46
1D	-vent,	1F	.	1f	-vent,	2r	.
.	.	.	.	.	.	2a/	sou-
1r	.	2r	.	2r	.	1b-	vent,
.	.	2G/	Sou-	2d\	sou-	.	.
=47	=47	=47	=47	=47	=47	=47	=47
1D	sou-	2A/	-vent,	2.f\	-vent,	1r	.
.	.	2F/	sou-	.	.	.	.
.	.	.	.	4e\	.	.	.
1G	-vent,	1B-	-vent,	4d\	.	2r	.
.	.	.	.	4c\	.	.	.
.	.	.	.	2d\	sou-	2g/	sou-
=48	=48	=48	=48	=48	=48	=48	=48
1r	.	2r	.	4B-\	-vent,	1b-	-vent,
.	.	.	.	4c\	.	.	.
.	.	2G/	sou-	4d\	.	.	.
.	.	.	.	4e\	.	.	.
1D	sou-	2A/	-vent,	1f	.	1r	.
.	.	2F/	sou-	.	.	.	.
=49	=49	=49	=49	=49	=49	=49	=49
1G	-vent	1B-	-vent,	2r	.	2r	.
.	.	.	.	2d\	sou-	2g/	sou-
2D\	.	2r	.	2f\	-vent	2a/	-vent
2G\	sy	2G/	sou-	2d\	sy	2b-\	sy
=50	=50	=50	=50	=50	=50	=50	=50
2F\	les	2A/	-vent	2f\	les	2a/	les
2G\	re-	2B-\	sy	2d\	re-	2g/	re-
2F\	-mu-	2A/	les	2f\	-mu-	[1cc	-mu-
2G\	-e,	2G/	re-	2e\	.	.	.
=51	=51	=51	=51	=51	=51	=51	=51
2r	.	1A	-mu-	4f\	.	2cc\]	.
.	.	.	.	4e\	.	.	.
2F\	sou-	.	.	4d\	.	4b-\	.
.	.	.	.	4c\	.	4a/	.
2G\	-vent	1G	-e,	1B-	-e,	2b-\	-e,
2E\	sy	.	.	.	.	2g/	sou-
=52	=52	=52	=52	=52	=52	=52	=52
2F\	les	2r	.	2r	.	2a/	-vent
2G\	re-	2G/	sou-	2d\	sou-	2b-\	sy
2F\	-mu-	2A/	-vent	2f\	-vent	2a/	les
2G\	.	2B-\	sy	2e\	sy	2g/	re-
=53	=53	=53	=53	=53	=53	=53	=53
2D\	.	2A/	les	2d\	les	2f/	-mu-
2E-\	.	2G/	re-	2c\	re-	1g	.
1D	-e,	1A	-mu-	[1d	-mu-	.	.
.	.	.	.	.	.	2f#i/	.
=54	=54	=54	=54	=54	=54	=54	=54
2r	.	[0Gl	-e.	2d\]	.	[0gl	-e.
2GG/	re-	.	.	4c\	.	.	.
.	.	.	.	4B-\	.	.	.
2C/	-mu-	.	.	2e-\	.	.	.
[2BB-/	.	.	.	[2d\	.	.	.
=55	=55	=55	=55	=55	=55	=55	=55
2BB-/]	.	0G_	.	2d\]	.	0g_	.
4AA/	.	.	.	4c\	.	.	.
4GG/	.	.	.	4B-\	.	.	.
2C/	.	.	.	2e-i\	.	.	.
2BB-/	.	.	.	2d\	.	.	.
=56	=56	=56	=56	=56	=56	=56	=56
0GGl	-e.	0G]	.	0dl	-e.	0g]	.
==	==	==	==	==	==	==	==
*-	*-	*-	*-	*-	*-	*-	*-
!!!RDF**kern: l=long note in original notation
!!!RDF**kern: i=editorial accidental
!!!ENC: Will Watson 18/08/2011
!!!END: 2011/08/18/
!!!EED: Jesse Rodin
!!!EEV: 2011/09/21/
!!attribution-level@Jos: 2 (provisionally attributable [parentheses checkmark])
!!!ONB: Translated from MusicXML and edited on 2011/09/21/ by Craig Sapp
!!muse2ps: C^@{COM}\n@{SCT}^i2I150v90,90,90,120c105z18l2700t130
